images/dist/back.svg

<svg width="20" height="20" viewBox="0 0 20 20" fill="none" xmlns="http://www.w3.org/2000/svg">
<path d="M1.89453 8.75004H1.5625C1.04297 8.75004 0.625 8.33207 0.625 7.81254V2.81254C0.625 2.43363 0.851562 2.08988 1.20312 1.94535C1.55469 1.80082 1.95703 1.87894 2.22656 2.14847L3.85156 3.77347C7.27344 0.394567 12.7852 0.406286 16.1875 3.81254C19.6055 7.2305 19.6055 12.7696 16.1875 16.1875C12.7695 19.6055 7.23047 19.6055 3.8125 16.1875C3.32422 15.6993 3.32422 14.9063 3.8125 14.418C4.30078 13.9297 5.09375 13.9297 5.58203 14.418C8.02344 16.8594 11.9805 16.8594 14.4219 14.418C16.8633 11.9766 16.8633 8.01957 14.4219 5.57816C11.9922 3.14847 8.06641 3.13675 5.62109 5.5391L7.22656 7.14847C7.49609 7.418 7.57422 7.82035 7.42969 8.17191C7.28516 8.52347 6.94141 8.75004 6.5625 8.75004H1.89453Z" fill="white"/>
</svg>

<svg width="20" height="20" fill="none" xmlns="http://www.w3.org/2000/svg"><path d="M1.895 8.75h-.333a.935.935 0 0 1-.937-.937v-5a.936.936 0 0 1 1.602-.665l1.625 1.625c3.421-3.378 8.933-3.367 12.336.04a8.75 8.75 0 0 1 0 12.374 8.75 8.75 0 0 1-12.375 0 1.252 1.252 0 0 1 1.769-1.769 6.25 6.25 0 0 0 8.84 0 6.25 6.25 0 0 0 0-8.84 6.25 6.25 0 0 0-8.8-.039l1.605 1.61a.939.939 0 0 1-.665 1.601H1.896Z" fill="#fff"/></svg>
